img/main-top-check.svg

<svg width="16" height="16" viewBox="0 0 16 16" fill="none" xmlns="http://www.w3.org/2000/svg">
<path d="M7.99984 15.3337C12.0432 15.3337 15.3332 12.044 15.3332 8.00033C15.3332 7.30238 15.2357 6.61458 15.0428 5.95588C14.9478 5.63197 14.6096 5.44592 14.2848 5.54096C13.9606 5.6357 13.7751 5.97512 13.8698 6.29903C14.0296 6.84629 14.1109 7.4189 14.1109 8.00033C14.1109 11.3699 11.3695 14.1114 7.99984 14.1114C4.63022 14.1114 1.88873 11.3699 1.88873 8.00033C1.88873 4.63071 4.63022 1.88921 7.99984 1.88921C9.22445 1.88921 10.4027 2.24729 11.4071 2.92449C11.6866 3.11323 12.0668 3.03908 12.2552 2.75948C12.4438 2.47959 12.3703 2.09973 12.0904 1.91115C10.8834 1.09728 9.46898 0.666992 7.99984 0.666992C3.95645 0.666992 0.666504 3.95664 0.666504 8.00033C0.666504 12.044 3.95645 15.3337 7.99984 15.3337Z" fill="#FF3F3A"/>
<path d="M14.8617 1.52885L7.99971 8.3905L5.8044 6.19552C5.54399 5.93526 5.12211 5.93526 4.86169 6.19552C4.60144 6.45593 4.60144 6.87781 4.86169 7.13822L7.52836 9.80489C7.65873 9.93526 7.82898 10.0002 7.99971 10.0002C8.17045 10.0002 8.3407 9.93526 8.47107 9.80489L15.8044 2.47156C16.0647 2.21114 16.0647 1.78927 15.8044 1.52885C15.544 1.2686 15.1221 1.2686 14.8617 1.52885Z" fill="#FF3F3A"/>
</svg>

<svg width="16" height="16" fill="none" xmlns="http://www.w3.org/2000/svg"><path d="M8 15.334c4.043 0 7.333-3.29 7.333-7.334a7.27 7.27 0 00-.29-2.044.61.61 0 10-1.173.343A6.118 6.118 0 018 14.111a6.118 6.118 0 01-6.111-6.11 6.118 6.118 0 016.11-6.112 6.07 6.07 0 013.408 1.035.611.611 0 00.683-1.013A7.288 7.288 0 008 .667C3.956.667.667 3.957.667 8c0 4.044 3.29 7.334 7.333 7.334z" fill="#FF3F3A"/><path d="M14.862 1.529L8 8.39 5.804 6.196a.667.667 0 00-.942.942l2.666 2.667a.664.664 0 00.943 0l7.333-7.333a.667.667 0 00-.942-.943z" fill="#FF3F3A"/></svg>
